X:19245
T:Youp' Nanette - bourree
Z:abc transcription Simon Wascher
N:please mail errors to: simon.wascher@chello.at
M:2/4
L:1/8
K:D
d2 A2|F2 D2|E3/2F/2 GE|F3/2G/2 AF|
d2 A2|F2 D2|E3/2G/2 FE|D4:|
|:F3/2A/2 FA|B2 G2|B3/2d/2 ^cB|A3A|
F3/2A/2 FA|B2 G2|F3/2A/2 GE|D3A:|


